assets/img/img-pages/fran/cultivation.svg

<svg width="84" height="84" viewBox="0 0 84 84" fill="none" xmlns="http://www.w3.org/2000/svg">
<path fill-rule="evenodd" clip-rule="evenodd" d="M36.4767 25.1709C31.5511 20.2479 21.9123 19.677 15.0897 19.677C14.3831 19.677 13.8096 20.2504 13.8096 20.957C13.8096 27.7796 14.3779 37.4184 19.3035 42.3441C21.3824 44.4229 24.5697 45.3523 27.7288 45.3523C30.285 45.3523 32.8241 44.7434 34.7439 43.6429C37.3464 49.0909 39.4106 57.2366 39.4106 69.5989C39.4106 70.3055 39.9841 70.879 40.6907 70.879C41.3973 70.879 41.9708 70.3055 41.9708 69.6016C41.9708 62.6588 43.1511 54.3173 47.5754 47.4567C49.497 49.335 52.8666 50.4136 56.2689 50.4136C59.428 50.4136 62.6128 49.4868 64.6967 47.4081C69.6198 42.4825 70.1907 32.8437 70.1907 26.021C70.1908 25.3144 69.6173 24.7409 68.9107 24.7409C62.0881 24.7409 52.4493 25.3092 47.5236 30.2348C43.8928 33.8635 43.7689 40.8647 45.9708 45.206C43.6094 48.6111 42.0392 52.3787 41.0286 56.1941C40.0952 50.1368 38.5535 45.5293 36.7974 41.9983C40.1811 38.1297 40.6889 29.3807 36.4767 25.1709ZM35.4417 39.5386C37.4611 36.2703 37.5404 29.8571 34.6666 26.9835C30.6909 23.0076 22.6137 22.319 16.3773 22.2447C16.4516 28.4812 17.1403 36.5583 21.1162 40.5341C23.9548 43.3727 30.245 43.3299 33.5496 41.382C30.692 36.4839 27.4935 34.2958 25.7064 33.0739C25.115 32.6695 24.6773 32.3546 24.4238 32.1037C23.9246 31.6045 23.9246 30.7929 24.4238 30.2936C24.923 29.7944 25.7346 29.7944 26.2338 30.2936C26.3815 30.4393 26.6267 30.6058 26.9406 30.819C27.0075 30.8644 27.0775 30.9119 27.1503 30.9618L27.1523 30.9632C29.046 32.2592 32.4019 34.5558 35.4417 39.5386ZM49.0894 45.3344C51.5244 42.2437 54.7385 39.5546 58.9519 37.5747C58.9519 37.5722 59.1593 37.4748 59.1593 37.4748C59.7968 37.1727 59.9683 36.4609 59.6662 35.8209C59.3642 35.1783 58.4988 34.9582 57.8613 35.2551C53.6299 37.2445 50.3262 39.8716 47.7611 42.8797C46.583 39.4298 46.9026 34.4734 49.3311 32.0449C53.3069 28.069 61.384 27.3804 67.6204 27.3061C67.5462 33.545 66.8575 41.6222 62.8816 45.5954C59.6764 48.8007 52.0678 48.3322 49.3311 45.5954C49.2484 45.5128 49.1678 45.4257 49.0894 45.3344Z" fill="#1D3557"/>
</svg>

<svg width="84" height="84" fill="none" xmlns="http://www.w3.org/2000/svg"><path fill-rule="evenodd" clip-rule="evenodd" d="M36.477 25.17c-4.926-4.922-14.565-5.493-21.387-5.493a1.28 1.28 0 0 0-1.28 1.28c0 6.823.568 16.461 5.493 21.387 2.08 2.079 5.267 3.008 8.426 3.008 2.556 0 5.095-.609 7.015-1.71 2.602 5.449 4.667 13.595 4.667 25.957a1.28 1.28 0 0 0 2.56.003c0-6.943 1.18-15.285 5.604-22.145 1.922 1.878 5.292 2.957 8.694 2.957 3.159 0 6.344-.927 8.428-3.006 4.923-4.925 5.494-14.564 5.494-21.387a1.28 1.28 0 0 0-1.28-1.28c-6.823 0-16.462.568-21.387 5.494-3.631 3.629-3.755 10.63-1.553 14.971-2.362 3.405-3.932 7.173-4.942 10.988-.934-6.057-2.476-10.665-4.232-14.196 3.384-3.868 3.892-12.617-.32-16.827ZM35.442 39.54c2.02-3.269 2.098-9.682-.775-12.556-3.976-3.975-12.053-4.664-18.29-4.738.075 6.236.763 14.313 4.74 18.29 2.838 2.838 9.128 2.795 12.433.847-2.858-4.898-6.056-7.086-7.844-8.308-.591-.404-1.029-.72-1.282-.97a1.281 1.281 0 0 1 1.81-1.81c.147.145.393.312.707.525l.21.143.001.001c1.894 1.296 5.25 3.593 8.29 8.576Zm13.647 5.795c2.435-3.09 5.65-5.78 9.863-7.76 0-.002.207-.1.207-.1.638-.301.81-1.013.507-1.653-.302-.643-1.167-.863-1.805-.566-4.231 1.99-7.535 4.617-10.1 7.625-1.178-3.45-.858-8.407 1.57-10.835 3.976-3.976 12.053-4.665 18.29-4.739-.075 6.239-.763 14.316-4.74 18.29-3.205 3.205-10.813 2.736-13.55 0a4.654 4.654 0 0 1-.242-.262Z" fill="#1D3557"/></svg>
